T: Paddy Breen's
M: 6/8
L: 1/8
K: Gmaj
G2 B G2 B | G2 B ded | BAB E2 D | FAG FED |G2 B G2 B | G2 B ded | BAB E2 D | FAF G :|GBd g3 | f2 e e2 d | e2 d e2 f | e2 d BAB |GB/c/d gag | f2 e e2 d | BAB E2 D | FAF G :|
